packages/ui-icons/svg/Line/equation.svg

<svg viewBox="0 0 1920 1920" version="1.1" xmlns="http://www.w3.org/2000/svg">
    <path d="M1920,260 L1920,372.941176 L1048.43294,372.941176 L558.494118,1660.69647 L451.990588,1658.32471 L244.743529,1031.04941 L0,1031.04941 L0,918.108235 L285.515294,918.108235 L339.162353,956.847059 L509.364706,1471.97176 L956.611765,296.367059 L1009.46824,260 L1920,260 Z M1786.01788,863.218824 L1865.86729,943.181176 L1585.66024,1223.16235 L1865.86729,1503.36941 L1786.01788,1583.10588 L1505.81082,1303.01176 L1225.82965,1583.10588 L1145.98024,1503.36941 L1426.07435,1223.16235 L1145.98024,943.181176 L1225.82965,863.218824 L1505.81082,1143.31294 L1786.01788,863.218824 Z" stroke="none" stroke-width="1" fill-rule="evenodd"/>
</svg>

<svg viewBox="0 0 1920 1920" xmlns="http://www.w3.org/2000/svg">
    <path d="M1920 260v112.941h-871.567L558.494 1660.696l-106.503-2.371-207.247-627.276H0V918.11h285.515l53.647 38.738 170.203 515.125L956.612 296.367 1009.468 260H1920Zm-133.982 603.219 79.85 79.962-280.208 279.981 280.207 280.207-79.85 79.737-280.206-280.094-279.981 280.094-79.85-79.737 280.094-280.207-280.094-279.98 79.85-79.963 279.98 280.094 280.208-280.094Z" fill-rule="evenodd"/>
</svg>
